docs/.gitbook/assets/icon-microphone-16@light.svg

<svg width="32" height="32" viewBox="0 0 16 16" fill="none" xmlns="http://www.w3.org/2000/svg">
<rect x="0" y="0" width="16" height="16" fill="#fff"/>
<path fill-rule="evenodd" clip-rule="evenodd" d="M8 1C5.79086 1 4 2.79086 4 5V7C4 9.20914 5.79086 11 8 11C10.2091 11 12 9.20914 12 7V5C12 2.79086 10.2091 1 8 1ZM5.5 5C5.5 3.61929 6.61929 2.5 8 2.5C9.38071 2.5 10.5 3.61929 10.5 5V7C10.5 8.38071 9.38071 9.5 8 9.5C6.61929 9.5 5.5 8.38071 5.5 7V5ZM4.3203 10.55C4.05144 10.2352 3.57833 10.1978 3.26332 10.4665C2.94816 10.7353 2.91058 11.2086 3.17938 11.5238L3.74472 11.0416C3.17938 11.5238 3.17957 11.524 3.17977 11.5243L3.18019 11.5248L3.18117 11.5259L3.18358 11.5287L3.19027 11.5364L3.21107 11.5598C3.22821 11.5789 3.25191 11.6048 3.282 11.6366C3.34214 11.7 3.42806 11.7869 3.53843 11.8895C3.75861 12.0941 4.07929 12.3639 4.48968 12.6335C5.16502 13.0771 6.10451 13.5335 7.25001 13.6788L7.25 14.25C7.24999 14.6642 7.58578 15 7.99999 15C8.4142 15 8.74999 14.6642 8.75 14.25L8.75001 13.6788C9.89551 13.5335 10.835 13.0771 11.5103 12.6335C11.9207 12.3639 12.2414 12.0941 12.4616 11.8895C12.572 11.7869 12.6579 11.7 12.718 11.6366C12.7481 11.6048 12.7718 11.5789 12.789 11.5598L12.8098 11.5364L12.8165 11.5287L12.8189 11.5259L12.8198 11.5248L12.8203 11.5243C12.8205 11.524 12.8206 11.5238 12.25 11.0371L12.8206 11.5238C13.0894 11.2086 13.0519 10.7353 12.7367 10.4665C12.4222 10.1982 11.9501 10.2351 11.681 10.5485L11.681 10.5486C11.6811 10.5483 11.6812 10.5482 11.6812 10.5482L11.6812 10.5483L11.681 10.5485C11.6809 10.5487 11.6807 10.5489 11.6806 10.549C11.6804 10.5492 11.6802 10.5494 11.6801 10.5496C11.68 10.5496 11.68 10.5497 11.68 10.5497L11.68 10.5496L11.6727 10.5579C11.6643 10.5672 11.6499 10.583 11.6297 10.6043C11.5893 10.6469 11.5257 10.7115 11.4405 10.7907C11.2694 10.9496 11.0144 11.1646 10.6868 11.3798C10.0283 11.8123 9.1078 12.2261 8.00001 12.2261C6.89223 12.2261 5.97172 11.8123 5.31321 11.3798C4.98563 11.1646 4.73059 10.9496 4.55955 10.7907C4.4743 10.7115 4.41074 10.6469 4.37029 10.6043C4.35009 10.583 4.33572 10.5672 4.32738 10.5579L4.31947 10.549L4.31999 10.5496L4.3203 10.55ZM4.3203 10.55C4.32042 10.5501 4.32053 10.5503 4.32065 10.5504L3.75005 11.0371C4.32065 10.5504 4.32047 10.5502 4.3203 10.55Z" fill="#000"/>
</svg>

<svg xmlns="http://www.w3.org/2000/svg" width="32" height="32" fill="none" viewBox="0 0 16 16"><path fill="#fff" d="M0 0h16v16H0z"/><path fill="#000" fill-rule="evenodd" d="M8 1a4 4 0 0 0-4 4v2a4 4 0 1 0 8 0V5a4 4 0 0 0-4-4M5.5 5a2.5 2.5 0 0 1 5 0v2a2.5 2.5 0 0 1-5 0zm-1.18 5.55a.75.75 0 0 0-1.14.974l.565-.482-.565.482.001.002.003.003.006.007.021.024q.025.029.071.077a7.3 7.3 0 0 0 1.208.997c.675.443 1.615.9 2.76 1.045v.571a.75.75 0 1 0 1.5 0v-.571c1.146-.146 2.085-.602 2.76-1.046.41-.27.731-.539.952-.743a6 6 0 0 0 .327-.33l.02-.024.008-.007.002-.003v-.001h.001l-.57-.488.57.487a.75.75 0 0 0-1.139-.975h-.001l-.007.009-.043.046q-.06.066-.19.187a6 6 0 0 1-.753.589c-.659.432-1.58.846-2.687.846-1.108 0-2.028-.414-2.687-.846a5.8 5.8 0 0 1-.943-.776l-.043-.046zm0 0-.57.487z" clip-rule="evenodd"/></svg>
